X: 24
T: Off She Goes
I: Off She Goes	J-8	D	jig
M: 6/8
R: jig
K: D
A| "D"F2A "G"G2B| "A"ABc "D"d2A| F2A "G"G2B| "D"AFD "A"E2D|
   "D"F2A "G"G2B| "A"ABc "D"d2e| fed "G"g2f| "A"edc "D"d2 :|
|:g| "D"f/g/af d2f| "G"g/a/bg "Em"e2g| "D"f/g/af d2f| "A"ecA A2g|
   "D"f/g/af d2f| "G"g/a/bg "Em"e2g| "D"fed "G"g2f| "A"edc "D"d2 :|
%%text Roaring Jelly  J-8

